img/Telegram.svg

<svg width="28" height="23" viewBox="0 0 28 23" fill="none" xmlns="http://www.w3.org/2000/svg">
<path d="M27.3471 2.09385L23.2085 21.6116C22.8963 22.9891 22.082 23.332 20.9249 22.683L14.619 18.0362L11.5762 20.9627C11.2395 21.2994 10.9578 21.581 10.3089 21.581L10.7619 15.1588L22.4493 4.59785C22.9575 4.14481 22.3391 3.89379 21.6596 4.34684L7.21102 13.4445L0.990807 11.4976C-0.362213 11.0752 -0.386702 10.1446 1.27243 9.49566L25.6023 0.122482C26.7288 -0.299954 27.7145 0.373494 27.3471 2.09385Z" fill="#4C4C4C"/>
</svg>

<svg width="28" height="23" fill="none" xmlns="http://www.w3.org/2000/svg"><path d="M27.347 2.094l-4.139 19.518c-.312 1.377-1.126 1.72-2.283 1.071l-6.306-4.647-3.043 2.927c-.337.336-.618.618-1.267.618l.453-6.422L22.449 4.598c.508-.453-.11-.704-.79-.251L7.212 13.445l-6.22-1.947c-1.353-.423-1.378-1.353.281-2.002L25.602.122c1.127-.422 2.113.251 1.745 1.972z" fill="#4C4C4C"/></svg>
